site/static/assets/logo-nobackground.svg

<svg width="800" height="800" viewBox="0 0 800 800" fill="none" xmlns="http://www.w3.org/2000/svg">
<g clip-path="url(#clip0_213_42)">
<path d="M63.3178 472.594C43.6427 472.242 2.79199 495.296 0.07818 449.579C-2.06156 413.543 38.763 425.142 63.1221 420.027C79.8225 416.518 108.709 409.733 109.492 402.1C113.315 364.499 139.592 323.517 103.216 288.603C83.9715 270.128 61.2824 255.02 43.5252 235.345C37.3017 228.456 38.1629 211.364 41.8291 201.096C43.4209 196.634 60.2387 197.364 70.2067 196.321C72.5291 196.073 75.282 197.965 77.5262 199.361C99.9281 213.412 128.645 244.099 143.336 238.398C178.929 224.62 208.898 195.029 238.88 169.169C245.221 163.703 244.843 146.298 242.26 135.677C239.207 123.113 228.077 112.558 224.907 99.9934C222.728 91.3692 226.903 80.2139 231.13 71.6158C232.057 69.7239 247.322 71.4331 252.45 75.7126C268.785 89.3338 281.545 108.135 299.367 118.781C313.589 127.249 334.386 131.737 349.912 128.071C357.792 126.205 362.763 102.785 364.968 88.4727C367.786 70.1675 364.472 50.8316 367.917 32.7222C369.443 24.7112 381.525 12.747 388.062 13.2036C395.773 13.7385 406.406 24.6199 409.107 33.1266C413.843 48.0917 415.095 64.6877 415.004 80.5922C414.795 118.612 431.561 137.895 469.854 146.324C504.938 154.035 530.302 154.726 547.707 116.798C557.466 95.5182 574.349 76.8999 590.697 59.6124C596.138 53.8586 612.238 51.758 619.114 55.646C625.494 59.2601 631.17 75.269 628.299 82.0796C616.948 108.944 600.757 133.733 589.184 160.519C583.652 173.318 577.65 193.646 583.691 202.218C600 225.311 615.67 204.097 630.139 194.416C652.306 179.607 673.586 163.429 696.314 149.612C701.676 146.337 716.002 147.511 718.025 151.164C722.382 159.045 725.879 172.797 721.821 178.942C710.248 196.49 695.557 212.277 680.501 227.138C665.523 241.947 636.493 253.559 634.953 268.732C631.274 304.925 639.037 342.592 645.365 379.111C646.187 383.834 666.175 388.727 676.652 387.618C708.37 384.278 739.67 376.045 771.401 374.062C781.055 373.462 798.721 385.922 799.856 394.181C801.174 403.718 789.954 422.611 781.277 424.568C745.293 432.683 708.226 439.572 671.538 439.663C648.94 439.729 632.292 442.899 632.226 465.184C632.2 475.426 647.452 489.595 659.038 495.179C681.192 505.812 724.783 498.832 715.741 535.247C705.943 574.754 666.88 552.73 639.872 548.881C614.991 545.332 593.672 544.341 574.806 566.612C555.457 589.471 552.13 606.706 578.85 625.442C596.281 637.667 614 650.714 627.503 666.814C634.17 674.76 637.015 694.827 631.678 701.546C625.755 708.996 605.193 713.406 596.869 708.722C571.596 694.527 547.524 677.096 526.14 657.486C508.526 641.333 493.509 634.079 469.476 643.695C441.594 654.863 446.187 675.36 448.17 696.732C450.375 720.425 453.819 744.262 452.854 767.878C452.567 774.845 439.624 785.961 431.692 786.679C423.667 787.422 410.881 779.594 407.006 772.027C401.226 760.767 402.414 746.154 398.852 733.459C391.35 706.752 414.678 666.358 361.498 659.834C313.523 653.95 311.697 687.546 302.59 717.672C299.576 727.666 296.04 738.3 289.66 746.167C285.628 751.138 275.256 754.491 268.954 753.082C262.861 751.725 253.806 743.271 253.898 738.065C254.25 717.02 258.725 696.053 259.508 674.969C260.056 660.291 262.104 641.646 254.472 631.613C241.973 615.148 223.08 595.812 205.14 593.868C192.315 592.485 176.332 617.274 162.32 630.987C152.821 640.303 145.698 652.75 134.895 659.769C127.327 664.688 109.661 667.193 106.53 663.109C99.7324 654.224 93.796 638.137 97.5144 629.108C105.486 609.733 118.312 591.741 131.855 575.419C151.934 551.23 165.79 529.31 144.08 497.384C123.674 467.336 125.801 465.901 63.3178 472.594ZM577.794 369.887C577.624 305.643 560.911 273.847 519.89 236.114C448.888 170.774 298.91 192.55 238.776 239.246C179.268 285.472 163.742 370.252 195.446 450.74C232.513 544.889 307.509 602.022 385.557 595.433C393.502 594.755 401.422 593.346 409.237 591.702C513.562 569.678 578.094 484.689 577.794 369.887Z" fill="black"/>
</g>
<defs>
<clipPath id="clip0_213_42">
<rect width="800" height="800" fill="white"/>
</clipPath>
</defs>
</svg>

<svg width="800" height="800" fill="none" xmlns="http://www.w3.org/2000/svg"><g clip-path="url(#a)"><path d="M63.318 472.594c-19.675-.352-60.526 22.702-63.24-23.015-2.14-36.036 38.685-24.437 63.044-29.552 16.7-3.509 45.587-10.294 46.37-17.927 3.823-37.601 30.1-78.583-6.276-113.497-19.244-18.475-41.934-33.583-59.69-53.258-6.224-6.889-5.363-23.981-1.697-34.249 1.592-4.462 18.41-3.732 28.378-4.775 2.322-.248 5.075 1.644 7.32 3.04 22.401 14.051 51.118 44.738 65.809 39.037 35.593-13.778 65.562-43.369 95.544-69.229 6.341-5.466 5.963-22.871 3.38-33.492-3.053-12.564-14.183-23.119-17.353-35.684-2.179-8.624 1.996-19.78 6.223-28.377.927-1.892 16.192-.183 21.32 4.097 16.335 13.62 29.095 32.422 46.917 43.068 14.222 8.468 35.019 12.956 50.545 9.29 7.88-1.866 12.851-25.286 15.056-39.598 2.818-18.305-.496-37.641 2.949-55.75 1.526-8.012 13.608-19.976 20.145-19.52 7.711.536 18.344 11.417 21.045 19.924 4.736 14.965 5.988 31.56 5.897 47.465-.209 38.02 16.557 57.303 54.85 65.732 35.084 7.711 60.448 8.402 77.853-29.526 9.759-21.28 26.642-39.898 42.99-57.186 5.441-5.753 21.541-7.854 28.417-3.966 6.38 3.614 12.056 19.623 9.185 26.434-11.351 26.864-27.542 51.653-39.115 78.439-5.532 12.799-11.534 33.127-5.493 41.699 16.309 23.093 31.979 1.879 46.448-7.802 22.167-14.809 43.447-30.987 66.175-44.804 5.362-3.275 19.688-2.101 21.711 1.552 4.357 7.881 7.854 21.633 3.796 27.778-11.573 17.548-26.264 33.335-41.32 48.196-14.978 14.809-44.008 26.421-45.548 41.594-3.679 36.193 4.084 73.86 10.412 110.379.822 4.723 20.81 9.616 31.287 8.507 31.718-3.34 63.018-11.573 94.749-13.556 9.654-.6 27.32 11.86 28.455 20.119 1.318 9.537-9.902 28.43-18.579 30.387-35.984 8.115-73.051 15.004-109.739 15.095-22.598.066-39.246 3.236-39.312 25.521-.026 10.242 15.226 24.411 26.812 29.995 22.154 10.633 65.745 3.653 56.703 40.068-9.798 39.507-48.861 17.483-75.869 13.634-24.881-3.549-46.2-4.54-65.066 17.731-19.349 22.859-22.676 40.094 4.044 58.83 17.431 12.225 35.15 25.272 48.653 41.372 6.667 7.946 9.512 28.013 4.175 34.732-5.923 7.45-26.485 11.86-34.809 7.176-25.273-14.195-49.345-31.626-70.729-51.236-17.614-16.153-32.631-23.407-56.664-13.791-27.882 11.168-23.289 31.665-21.306 53.037 2.205 23.693 5.649 47.53 4.684 71.146-.287 6.967-13.23 18.083-21.162 18.801-8.025.743-20.811-7.085-24.686-14.652-5.78-11.26-4.592-25.873-8.154-38.568-7.502-26.707 15.826-67.101-37.354-73.625-47.975-5.884-49.801 27.712-58.908 57.838-3.014 9.994-6.55 20.628-12.93 28.495-4.032 4.971-14.404 8.324-20.706 6.915-6.093-1.357-15.148-9.811-15.056-15.017.352-21.045 4.827-42.012 5.61-63.096.548-14.678 2.596-33.323-5.036-43.356-12.499-16.465-31.392-35.801-49.332-37.745-12.825-1.383-28.808 23.406-42.82 37.119-9.499 9.316-16.622 21.763-27.425 28.782-7.568 4.919-25.234 7.424-28.365 3.34-6.798-8.885-12.734-24.972-9.016-34.001 7.972-19.375 20.798-37.367 34.341-53.689 20.079-24.189 33.935-46.109 12.225-78.035-20.406-30.048-18.279-31.483-80.762-24.79zm514.476-102.707c-.17-64.244-16.883-96.04-57.904-133.773-71.002-65.34-220.98-43.564-281.114 3.132-59.508 46.226-75.034 131.006-43.33 211.494 37.067 94.149 112.063 151.282 190.111 144.693 7.945-.678 15.865-2.087 23.68-3.731 104.325-22.024 168.857-107.013 168.557-221.815z" fill="#000"/></g><defs><clipPath id="a"><path fill="#fff" d="M0 0h800v800H0z"/></clipPath></defs></svg>
